www/assets/icons/vpn_key.svg

<svg xmlns="http://www.w3.org/2000/svg" width="24" height="24" viewBox="0 0 24 24" fill='currentColor'><path d="M12.65 10A5.99 5.99 0 0 0 7 6c-3.31 0-6 2.69-6 6s2.69 6 6 6a5.99 5.99 0 0 0 5.65-4H17v4h4v-4h2v-4zM7 14c-1.1 0-2-.9-2-2s.9-2 2-2 2 .9 2 2-.9 2-2 2"/></svg>

<svg width="24" height="24" viewBox="0 0 24 24" xmlns="http://www.w3.org/2000/svg" fill='currentColor'><path d="M12.65 10C11.83 7.67 9.61 6 7 6C3.69 6 1 8.69 1 12C1 15.31 3.69 18 7 18C9.61 18 11.83 16.33 12.65 14H17V18H21V14H23V10H12.65ZM7 14C5.9 14 5 13.1 5 12C5 10.9 5.9 10 7 10C8.1 10 9 10.9 9 12C9 13.1 8.1 14 7 14Z"/></svg>
